src/assets/icons/real-estate/garage_door.svg

<svg width="48" height="48" viewBox="0 0 48 48" fill="none" xmlns="http://www.w3.org/2000/svg">
<rect width="48" height="48" fill="white"/>
<path fill-rule="evenodd" clip-rule="evenodd" d="M37.9375 36.9356H35.875V14.161C35.875 13.5902 35.414 13.1288 34.8438 13.1288H12.1562C11.586 13.1288 11.125 13.5902 11.125 14.161V36.9356H9.0625V14.1775C9.0625 12.461 10.4588 11.0644 12.1738 11.0644H34.8262C36.5412 11.0644 37.9375 12.461 37.9375 14.1775V36.9356ZM29.6875 24.5491H17.3125H13.1875V22.4847H33.8125V24.5491H29.6875ZM26.5938 27.6457H20.4062C19.6442 27.6457 18.9769 27.2308 18.6212 26.6135H28.3788C28.0231 27.2308 27.3558 27.6457 26.5938 27.6457ZM13.1875 16.2915H33.8125V15.1932H13.1875V16.2915ZM13.1875 20.4203H33.8125V18.3559H13.1875V20.4203ZM34.8262 9H12.1738C9.32031 9 7 11.3225 7 14.1775V37.9678C7 38.5386 7.46097 39 8.03125 39H12.1562C12.7265 39 13.1875 38.5386 13.1875 37.9678V26.6135H16.4277C16.8887 28.39 18.4902 29.7102 20.4062 29.7102H26.5938C28.5098 29.7102 30.1113 28.39 30.5723 26.6135H33.8125V37.9678C33.8125 38.5386 34.2735 39 34.8438 39H38.9688C39.539 39 40 38.5386 40 37.9678V14.1775C40 11.3225 37.6797 9 34.8262 9Z" fill="#253238"/>
</svg>

<svg width="48" height="48" viewBox="0 0 48 48" fill="none" xmlns="http://www.w3.org/2000/svg"><path fill-rule="evenodd" clip-rule="evenodd" d="M37.938 36.936h-2.063V14.16a1.03 1.03 0 00-1.031-1.032H12.156a1.03 1.03 0 00-1.031 1.032v22.775H9.062V14.178a3.116 3.116 0 013.112-3.114h22.652a3.116 3.116 0 013.111 3.114v22.758zm-8.25-12.387h-16.5v-2.064h20.624v2.064h-4.124zm-3.094 3.097h-6.188c-.762 0-1.43-.415-1.785-1.033h9.758a2.059 2.059 0 01-1.785 1.033zM13.187 16.29h20.626v-1.098H13.186v1.098zm0 4.13h20.626v-2.065H13.186v2.064zM34.828 9H12.173A5.181 5.181 0 007 14.178v23.79C7 38.538 7.461 39 8.031 39h4.125a1.03 1.03 0 001.031-1.032V26.613h3.24c.462 1.777 2.063 3.097 3.98 3.097h6.187c1.916 0 3.517-1.32 3.978-3.097h3.24v11.355c0 .57.462 1.032 1.032 1.032h4.125A1.03 1.03 0 0040 37.968v-23.79A5.181 5.181 0 0034.826 9z" fill="#253238"/></svg>
